src/icons/service-jira.svg

<svg enable-background="new 0 0 14 14" viewBox="0 0 14 14" xmlns="http://www.w3.org/2000/svg" xmlns:xlink="http://www.w3.org/1999/xlink"><linearGradient id="a"><stop offset=".18" stop-color="#0052cc"/><stop offset="1" stop-color="#2684ff"/></linearGradient><linearGradient id="b" gradientTransform="matrix(4.5 0 0 -7 1045.5 2440)" gradientUnits="userSpaceOnUse" x1="-231.1062" x2="-231.3716" xlink:href="#a" y1="348.167" y2="347.7541"/><linearGradient id="c" gradientTransform="matrix(4.5 0 0 -7 1050 2447)" gradientUnits="userSpaceOnUse" x1="-231.4471" x2="-231.1822" xlink:href="#a" y1="347.9795" y2="348.3915"/><path d="m13.6 6.6-6-6-.6-.6-4.5 4.5-2.1 2.1c-.2.2-.2.6 0 .8l4.1 4.1 2.5 2.5 4.5-4.5.1-.1 2-2c.2-.2.2-.6 0-.8zm-6.6 2.5-2.1-2.1 2.1-2.1 2.1 2.1z" fill="#2684ff"/><path d="m7 4.9c-1.4-1.3-1.4-3.5 0-4.9l-4.5 4.5 2.4 2.5z" fill="url(#b)"/><path d="m9.1 7-2.1 2.1c1.4 1.4 1.4 3.6 0 4.9l4.5-4.5z" fill="url(#c)"/></svg>

<svg viewBox="0 0 14 14" xmlns="http://www.w3.org/2000/svg" xmlns:xlink="http://www.w3.org/1999/xlink"><linearGradient id="a"><stop offset=".18" stop-color="#0052cc"/><stop offset="1" stop-color="#2684ff"/></linearGradient><linearGradient id="b" gradientTransform="matrix(4.5 0 0 -7 1045.5 2440)" gradientUnits="userSpaceOnUse" x1="-231.106" x2="-231.372" xlink:href="#a" y1="348.167" y2="347.754"/><linearGradient id="c" gradientTransform="matrix(4.5 0 0 -7 1050 2447)" gradientUnits="userSpaceOnUse" x1="-231.447" x2="-231.182" xlink:href="#a" y1="347.979" y2="348.392"/><path d="M13.6 6.6l-6-6L7 0 2.5 4.5.4 6.6c-.2.2-.2.6 0 .8l4.1 4.1L7 14l4.5-4.5.1-.1 2-2c.2-.2.2-.6 0-.8zM7 9.1L4.9 7 7 4.9 9.1 7z" fill="#2684ff"/><path d="M7 4.9C5.6 3.6 5.6 1.4 7 0L2.5 4.5 4.9 7z" fill="url(#b)"/><path d="M9.1 7L7 9.1c1.4 1.4 1.4 3.6 0 4.9l4.5-4.5z" fill="url(#c)"/></svg>
